apex/img/why-choose-icon-2.svg

<svg width="33" height="39" viewBox="0 0 33 39" fill="none" xmlns="http://www.w3.org/2000/svg">
<path d="M26.8794 2.99183V0H6.11901V2.99183H0V11.434C0 15.7461 3.24356 19.2964 7.36322 19.6619C8.55291 21.9134 10.5132 23.6778 12.8794 24.5824V32.4407H8.93018V39H24.0683V32.4407H20.119V24.5824C22.4852 23.6778 24.4455 21.9136 25.6351 19.662C29.7555 19.2973 33 15.7466 33 11.434V2.99183H26.8794ZM2.2315 11.434V5.27712H6.11908V14.6194C6.11908 15.4966 6.22411 16.349 6.42063 17.165C4.00235 16.4359 2.2315 14.1434 2.2315 11.434ZM20.2917 17.0734L16.4991 15.0372L12.7066 17.0734L13.4257 12.7504L10.3627 9.68582L14.5997 9.05021L16.4992 5.11989L18.3987 9.05021L22.6357 9.68582L19.5727 12.7504L20.2917 17.0734ZM30.7684 11.434C30.7684 14.1437 28.9972 16.4363 26.5777 17.1652C26.7743 16.3492 26.8794 15.4967 26.8794 14.6195V5.27712H30.7684V11.434Z" fill="#323232"/>
</svg>

<svg width="33" height="39" fill="none" xmlns="http://www.w3.org/2000/svg"><path d="M26.88 2.992V0H6.118v2.992H0v8.442c0 4.312 3.244 7.862 7.363 8.228 1.19 2.251 3.15 4.016 5.516 4.92v7.859H8.93V39h15.138v-6.56H20.12v-7.858c2.366-.904 4.326-2.668 5.516-4.92 4.12-.365 7.365-3.915 7.365-8.228V2.992h-6.12zM2.231 11.434V5.277h3.887v9.342c0 .878.105 1.73.302 2.546-2.419-.73-4.19-3.022-4.19-5.731zm18.06 5.64l-3.793-2.037-3.792 2.036.719-4.323-3.063-3.064L14.6 9.05l1.9-3.93 1.899 3.93 4.237.636-3.063 3.064.719 4.323zm10.476-5.64c0 2.71-1.77 5.002-4.19 5.731.196-.816.301-1.668.301-2.545V5.277h3.89v6.157z" fill="#323232"/></svg>
